X:1
T:It Passeth Knowledge
T:(ra David Sankey
T:It Passeth Knowledge
T:Public Domain
T:Public Domain
C:(ra David Sankey
Z:Public Domain
%%score ( 1 2 ) ( 3 4 )
L:1/8
M:4/4
K:C
V:1 treble 
V:2 treble 
V:3 bass 
V:4 bass 
V:1
 [EG]2 | [Ec]3 [Ec] [GB]2 [FA]2 | [FA][EG][D^F][EG] [CE]3 [EG] | [B,G]2 [B,D]2 [CE]3 [DF] | %4
w: 1.~It|pass- eth know- ledge,|that dear love of Thine! My|Je- sus! Sav- ior!|
w: 2.~It|pass- eth tell- ing!|that dear love of Thine! My|Je- sus! Sav- ior!|
w: 3.~It|pass- eth prais- es!|that dear love of Thine! My|Je- sus! Sav- ior|
 [FA][EG][^D^F][EG] [CE]3 [EG] | [Ec]3 [Gc] [Bd][Ac][GB][FA] | [FA]2 [Fc]2 [EG]3 [EG] | %7
w: yet this soul of mine Would|of that love, in all its|depth and length, Its|
w: yet these lips of mine Would|fain pro- claim to sin- ners|far and near A|
w: yet this heart of mine Would|sing a love so rich, so|full, so free, Which|
 [Ec]3 [Ec] [Gd]3 [Gd] | [Ge]3 [Ge] [Gf][Ge][Ad][Ac] | [Gc]4 (G2 F2) | [Ec]6 |] %11
w: height and breadth, and|ev- er- last- ing strength Know|more and *||
w: love which can re-|move all guilt- y fear, And|love be- *||
w: brought an un- done|sin- ner, such as me, Right|home to *||
V:2
 x2 | x8 | x8 | x8 | x8 | x8 | x8 | x8 | x8 | x4 B4 | x6 |] %11
w: |||||||||more.||
w: |||||||||get.||
w: |||||||||God.||
V:3
 [C,C]2 | [C,C]3 [C,C] [C,C]2 [C,C]2 | [C,C][C,C][C,A,][C,G,] [C,G,]3 [C,G,] | %3
 [G,,G,]2 [G,,G,]2 [G,,G,]3 [G,,G,] | [C,G,][C,G,][C,A,][C,G,] [C,G,]3 [C,C] | %5
 [C,C]3 [E,C] [E,C][E,C][E,C][E,C] | [F,C]2 [A,C]2 C3 [C,C] | [C,G,]3 [C,G,] [G,B,]3 [G,B,] | %8
 C3 C [B,D]C[F,C][^F,D] | [G,E]4 [G,D]4 | [C,C]6 |] %11
V:4
 x2 | x8 | x8 | x8 | x8 | x8 | x4 C3 x | x8 | C3 C C x3 | x8 | x6 |] %11

